src/static/pycontw-2017/images/icon-plus-circle.svg

<svg width="24px" height="24px" viewBox="133 551 24 24" version="1.1" xmlns="http://www.w3.org/2000/svg" xmlns:xlink="http://www.w3.org/1999/xlink">
    <defs></defs>
    <path d="M145.010336,551 C138.395349,551 133,556.37931 133,563 C133,569.62069 138.374677,575 145.010336,575 C151.625323,575 157,569.62069 157,563 C157,556.37931 151.625323,551 145.010336,551 L145.010336,551 Z M145.010336,573.324138 C139.325581,573.324138 134.69509,568.689655 134.69509,563 C134.69509,557.310345 139.325581,552.675862 145.010336,552.675862 C150.69509,552.675862 155.325581,557.310345 155.325581,563 C155.325581,568.689655 150.69509,573.324138 145.010336,573.324138 Z M150.529716,562.048276 L145.857881,562.048276 L145.857881,557.351724 C145.857881,556.875862 145.485788,556.503448 145.010336,556.503448 C144.534884,556.503448 144.162791,556.875862 144.162791,557.351724 L144.162791,562.027586 L139.490956,562.027586 C139.015504,562.027586 138.643411,562.4 138.643411,562.875862 C138.643411,563.351724 139.015504,563.724138 139.490956,563.724138 L144.162791,563.724138 L144.162791,568.4 C144.162791,568.875862 144.534884,569.248276 145.010336,569.248276 C145.485788,569.248276 145.857881,568.875862 145.857881,568.4 L145.857881,563.724138 L150.529716,563.724138 C151.005168,563.724138 151.377261,563.351724 151.377261,562.875862 C151.377261,562.4 151.005168,562.048276 150.529716,562.048276 L150.529716,562.048276 Z" id="add" stroke="none" fill="#647D92" fill-rule="evenodd"></path>
</svg>

<svg width="24" height="24" viewBox="133 551 24 24" xmlns="http://www.w3.org/2000/svg"><path d="M145.01 551c-6.615 0-12.01 5.38-12.01 12s5.375 12 12.01 12c6.615 0 11.99-5.38 11.99-12s-5.375-12-11.99-12zm0 22.324c-5.684 0-10.315-4.634-10.315-10.324 0-5.69 4.63-10.324 10.315-10.324s10.316 4.634 10.316 10.324c0 5.69-4.63 10.324-10.316 10.324zm5.52-11.276h-4.672v-4.696a.839.839 0 0 0-.848-.849.839.839 0 0 0-.847.849v4.676h-4.672a.839.839 0 0 0-.848.848c0 .476.373.848.848.848h4.672v4.676c0 .476.372.848.847.848a.839.839 0 0 0 .848-.848v-4.676h4.672a.839.839 0 0 0 .847-.848c0-.476-.372-.828-.847-.828z" fill="#647D92" fill-rule="evenodd"/></svg>
